!!!OTL: VIVAT JETZT GEHTS INS FELD
!!!ARE: Europa, Mitteleuropa, Deutschland
!!!SCT: E0326
!!!YEM: Copyright 1995, estate of Helmut Schaffrath.
**kern
*ICvox
*Ivox
*M4/4
*k[]
*C:
{4g
=1
4cc
4cc
4cc
4cc
=2
2g
4r}
{4g
=3
4a
4a
8a
8b
8cc
8a
=4
2g
4r}
{4g
=5
8g
8f
8f
8e
4.f
8f
=6
8e
8g
8g
8cc
4.cc}
{8g
=7
8a
8g
8f
8e
8g
8f
8e
8d
=8
2c
4r}
==
!!!AGN: historisches Lied, Krieg, Schlacht bei Lowositz (1756)
!!!ONB: ESAC (Essen Associative Code) Database: ERK1
!!!AMT: simple quadruple
!!!AIN: vox
!!!EED: Helmut Schaffrath
!!!EEV: 1.0
*-
